X:1
T:Title
%%score 1 { 2 | 3 }
L:1/8
Q:1/4=98
M:4/4
K:Bb
V:1 treble nm="Grand Piano, Soprano"
V:2 bass nm="Choir Pad, From the Cyber Hymnal™"
V:3 bass 
V:1
 [DF]>[DF] [DF]>[EG] [DB]2 [DB]2 | [Fd]>[FB] [GB]>[EG] [DF]4 | [FB]>[FB] [FB]>[^Fc] [Gd]2 [Af]2 | %3
w: By~J.~M.~Pierce * * * * *|||
 [GB]>[GB] [=Ed]>[Ed] [Fc]4 | [DF]>[DF] [DF]>[EG] [DB]2 [DB]2 | [Fd]>[FB] [GB]>[EG] [DF]4 | %6
w: |||
 [FB]>[FB] [FB]>[Fc] [Fd]<[Bf] [Bf]>[GB] | [Fd]2 [Fc]2 [FB]4 | [Fd]>[Fd] [Fd]>[Fd] [Fd]2 [Fc]2 | %9
w: |||
 [FB]6 z2 | [Bf]>[Bf] [Bf]>[Bf] [FB]2 [Fd]2 | [Fc]6 z2 | [DF]>[DF] [DF]>[EG] [DB]2 [DB]2 | %13
w: ||||
 [Fd]>[FB] [GB]>[EG] [DF]4 | [FB]>[FB] [FB]>[Fc] [Fd]<[Bf] [Bf]>[GB] | [Fd]2 [Fc]2 [FB]4- | %16
w: |||
 [FB]4 z4 |] %17
w: |
V:2
 B,>B, B,>B, B,2 B,2 | B,>B, E>B, B,4 | D>D D>C B,2 D2 | D>D[K:bass] B,>B, A,4 | %4
 B,>B, B,>B, B,2 B,2 | B,>B, E>B, B,4 | D>D D>D B,<D[K:bass] B,>B, | B,2 E2 D4 | %8
 B,>B, B,>B,[K:treble] B,2 E2 | D2 D2 D2 z2 | D>D D>D[K:bass] B,2 B,2 | A,2 A,2 A,2 z2 | %12
 B,>B, B,>B, B,2 B,2 | B,>B, E>B, B,4 | D>D D>C B,<D B,>B, | B,2 E2 D4- | D4 z4 |] %17
V:3
 B,,>B,, B,,>B,, B,,2 B,,2 | B,,>D, E,>G, z4 | B,>B, B,>A, G,2 D,2 | G,>G, C,>C, F,4 | %4
 B,,>B,, B,,>B,, B,,2 B,,2 | B,,>D, E,>G, z4 | B,,>B,, B,,>B,, B,,<B,, D,>E, | F,2 F,2 B,,4 | %8
 B,,>B,, B,,>B,, B,,2 B,,2 | B,,2 B,,2 B,,2 z2 | B,,>B,, B,,>B,, D,2 B,,2 | F,2 F,2 F,2 z2 | %12
 B,,>B,, B,,>B,, B,,2 B,,2 | B,,>D, E,>G, z4 | B,,>B,, B,,>B,, B,,<B,, D,>E, | F,2 F,2 B,,4- | %16
 B,,4 z4 |] %17

